src/assets/images/details/12.svg

<svg width="32" height="32" viewBox="0 0 32 32" fill="none" xmlns="http://www.w3.org/2000/svg">
<path fill-rule="evenodd" clip-rule="evenodd" d="M16 1C12.6227 1 9.52578 1.2558 7.23829 1.6847C6.10686 1.89684 5.09739 2.16499 4.33512 2.5029C3.95916 2.66956 3.5592 2.88937 3.23044 3.19061C2.90451 3.48925 2.5 4.01205 2.5 4.75C2.5 5.48795 2.90451 6.01075 3.23044 6.30939C3.5592 6.61063 3.95916 6.83044 4.33512 6.9971C4.43694 7.04223 4.54316 7.08612 4.6535 7.1288C6.94741 3.99775 10.7289 2 15.9989 2C21.2693 2 25.0509 3.99804 27.3448 7.12948C27.4557 7.08659 27.5625 7.04247 27.6649 6.9971C28.0408 6.83044 28.4408 6.61063 28.7696 6.30939C29.0955 6.01075 29.5 5.48795 29.5 4.75C29.5 4.01205 29.0955 3.48925 28.7696 3.19061C28.4408 2.88937 28.0408 2.66956 27.6649 2.5029C26.9026 2.16499 25.8931 1.89684 24.7617 1.6847C22.4742 1.2558 19.3773 1 16 1Z" fill="url(#paint0_linear_23_441)"/>
<path fill-rule="evenodd" clip-rule="evenodd" d="M3.58545 8.87308C3.76914 9.03039 3.95754 9.1651 4.13427 9.27827C4.92402 9.78396 5.96733 10.183 7.12271 10.4959C9.45512 11.1276 12.5932 11.5 16.0001 11.5C19.4071 11.5 22.5451 11.1276 24.8775 10.4959C26.0329 10.183 27.0762 9.78396 27.866 9.27827C28.0422 9.16543 28.23 9.03115 28.4132 8.87442C27.7682 7.60018 26.9262 6.45596 25.8872 5.4834C25.2541 5.66662 24.6125 5.81191 24.0984 5.90114C25.1119 6.17598 25.8242 6.47668 26.2482 6.74818L26.2511 6.75L26.2482 6.75182C25.8235 7.02378 25.1095 7.32504 24.0933 7.60026C22.0825 8.14483 19.2206 8.5 16.0001 8.5C12.7796 8.5 9.9177 8.14483 7.90696 7.60026C6.89077 7.32504 6.17672 7.02378 5.75201 6.75182L5.74916 6.75L5.75201 6.74818C6.16147 6.48598 6.83987 6.19655 7.79869 5.92948C7.31166 5.85527 6.67802 5.72592 6.0317 5.55817C5.02935 6.51408 4.21395 7.63189 3.58545 8.87308ZM5.44075 6.99946C5.44029 6.99941 5.44277 6.99515 5.44957 6.98683C5.44461 6.99535 5.44121 6.99951 5.44075 6.99946ZM26.5595 6.99946C26.559 6.99951 26.5556 6.99535 26.5507 6.98683C26.5575 6.99515 26.5599 6.99941 26.5595 6.99946ZM26.5507 6.51317C26.5556 6.50465 26.559 6.50049 26.5595 6.50054C26.5599 6.50059 26.5575 6.50485 26.5507 6.51317ZM5.44957 6.51317C5.44277 6.50485 5.44029 6.50059 5.44075 6.50054C5.44121 6.50049 5.44461 6.50465 5.44957 6.51317Z" fill="url(#paint1_radial_23_441)"/>
<path fill-rule="evenodd" clip-rule="evenodd" d="M3.12336 3.29456C3.85261 4.18731 7.59851 4.99999 8.5 4.99999H8.57107C10.5521 5.30835 13.1419 5.50004 16 5.50004C18.9216 5.50004 21.5628 5.29974 23.56 4.97927C24.9298 4.83139 28.5 3.91569 28.5 2.99999V2.97144C28.5936 3.03932 28.684 3.11223 28.7696 3.19065C29.0955 3.48929 29.5 4.01209 29.5 4.75004C29.5 5.48799 29.0955 6.01079 28.7696 6.30944C28.4408 6.61068 28.0408 6.83048 27.6649 6.99714C26.9026 7.33505 25.8931 7.6032 24.7617 7.81534C22.4742 8.24425 19.3773 8.50004 16 8.50004C12.6227 8.50004 9.52578 8.24425 7.23829 7.81534C6.10686 7.6032 5.09739 7.33505 4.33512 6.99714C3.95916 6.83048 3.5592 6.61068 3.23044 6.30944C2.90451 6.01079 2.5 5.48799 2.5 4.75004C2.5 4.09131 2.82233 3.60401 3.12336 3.29456Z" fill="url(#paint2_radial_23_441)"/>
<path fill-rule="evenodd" clip-rule="evenodd" d="M3.12336 3.29456C3.85261 4.18731 7.59851 4.99999 8.5 4.99999H8.57107C10.5521 5.30835 13.1419 5.50004 16 5.50004C18.9216 5.50004 21.5628 5.29974 23.56 4.97927C24.9298 4.83139 28.5 3.91569 28.5 2.99999V2.97144C28.5936 3.03932 28.684 3.11223 28.7696 3.19065C29.0955 3.48929 29.5 4.01209 29.5 4.75004C29.5 5.48799 29.0955 6.01079 28.7696 6.30944C28.4408 6.61068 28.0408 6.83048 27.6649 6.99714C26.9026 7.33505 25.8931 7.6032 24.7617 7.81534C22.4742 8.24425 19.3773 8.50004 16 8.50004C12.6227 8.50004 9.52578 8.24425 7.23829 7.81534C6.10686 7.6032 5.09739 7.33505 4.33512 6.99714C3.95916 6.83048 3.5592 6.61068 3.23044 6.30944C2.90451 6.01079 2.5 5.48799 2.5 4.75004C2.5 4.09131 2.82233 3.60401 3.12336 3.29456Z" fill="url(#paint3_radial_23_441)"/>
<defs>
<linearGradient id="paint0_linear_23_441" x1="16" y1="-1.04316" x2="16" y2="3.72421" gradientUnits="userSpaceOnUse">
<stop stop-color="#3173EC"/>
<stop offset="1" stop-color="#3A54E1"/>
</linearGradient>
<radialGradient id="paint1_radial_23_441" cx="0" cy="0" r="1" gradientUnits="userSpaceOnUse" gradientTransform="translate(14.5 6.5) rotate(90) scale(3.5 19.4266)">
<stop stop-color="#392108"/>
<stop offset="1" stop-color="#C87928" stop-opacity="0"/>
</radialGradient>
<radialGradient id="paint2_radial_23_441" cx="0" cy="0" r="1" gradientUnits="userSpaceOnUse" gradientTransform="translate(16.5 -23) rotate(90) scale(33 38.8902)">
<stop offset="0.842736" stop-color="#425BFF"/>
<stop offset="0.898067" stop-color="#508FFF"/>
<stop offset="0.957885" stop-color="#4457FF"/>
</radialGradient>
<radialGradient id="paint3_radial_23_441" cx="0" cy="0" r="1" gradientUnits="userSpaceOnUse" gradientTransform="translate(6.5 3.5) scale(14 16.4989)">
<stop stop-color="#5664D2"/>
<stop offset="1" stop-color="#4457FF" stop-opacity="0"/>
</radialGradient>
</defs>
</svg>

<svg width="32" height="32" fill="none" xmlns="http://www.w3.org/2000/svg"><path fill-rule="evenodd" clip-rule="evenodd" d="M16 1c-3.377 0-6.474.256-8.762.685-1.131.212-2.14.48-2.903.818-.376.167-.776.386-1.105.688-.325.298-.73.821-.73 1.559s.405 1.26.73 1.56c.33.3.73.52 1.105.687.102.045.208.09.319.132C6.947 3.998 10.729 2 15.998 2c5.27 0 9.052 1.998 11.346 5.13.11-.043.218-.088.32-.133.376-.167.776-.386 1.105-.688.326-.298.73-.821.73-1.559s-.404-1.26-.73-1.56c-.33-.3-.73-.52-1.105-.687-.762-.338-1.772-.606-2.903-.818C22.474 1.255 19.377 1 16 1z" fill="url(#a)"/><path fill-rule="evenodd" clip-rule="evenodd" d="M3.585 8.873c.184.157.373.292.55.405.789.506 1.832.905 2.988 1.218 2.332.632 5.47 1.004 8.877 1.004 3.407 0 6.545-.372 8.878-1.004 1.155-.313 2.198-.712 2.988-1.218.176-.113.364-.247.547-.404a12.104 12.104 0 0 0-2.526-3.39c-.633.183-1.274.328-1.789.417 1.014.275 1.726.576 2.15.847l.003.002-.003.002c-.425.272-1.139.573-2.155.848-2.01.545-4.872.9-8.093.9-3.22 0-6.082-.355-8.093-.9-1.016-.275-1.73-.576-2.155-.848l-.003-.002.003-.002c.41-.262 1.088-.551 2.047-.819a18.4 18.4 0 0 1-1.767-.37 12.12 12.12 0 0 0-2.447 3.314zM5.441 7l.009-.012a.051.051 0 0 1-.01.012zm21.118 0-.008-.012.009.012zm-.008-.486a.048.048 0 0 1 .009-.012s-.002.004-.01.012zm-21.101 0a.047.047 0 0 1-.01-.012c.001 0 .005.004.01.012z" fill="url(#b)"/><path fill-rule="evenodd" clip-rule="evenodd" d="M3.123 3.295C3.853 4.187 7.6 5 8.5 5h.071c1.981.308 4.57.5 7.429.5 2.922 0 5.563-.2 7.56-.52C24.93 4.83 28.5 3.915 28.5 3v-.029c.094.068.184.141.27.22.326.298.73.821.73 1.559s-.404 1.26-.73 1.56c-.33.3-.73.52-1.105.687-.762.338-1.772.606-2.903.818-2.288.43-5.385.685-8.762.685-3.377 0-6.474-.256-8.762-.685-1.131-.212-2.14-.48-2.903-.818-.376-.167-.776-.386-1.105-.688-.325-.298-.73-.821-.73-1.559 0-.659.322-1.146.623-1.455z" fill="url(#c)"/><path fill-rule="evenodd" clip-rule="evenodd" d="M3.123 3.295C3.853 4.187 7.6 5 8.5 5h.071c1.981.308 4.57.5 7.429.5 2.922 0 5.563-.2 7.56-.52C24.93 4.83 28.5 3.915 28.5 3v-.029c.094.068.184.141.27.22.326.298.73.821.73 1.559s-.404 1.26-.73 1.56c-.33.3-.73.52-1.105.687-.762.338-1.772.606-2.903.818-2.288.43-5.385.685-8.762.685-3.377 0-6.474-.256-8.762-.685-1.131-.212-2.14-.48-2.903-.818-.376-.167-.776-.386-1.105-.688-.325-.298-.73-.821-.73-1.559 0-.659.322-1.146.623-1.455z" fill="url(#d)"/><defs><radialGradient id="b" cx="0" cy="0" r="1" gradientUnits="userSpaceOnUse" gradientTransform="matrix(0 3.5 -19.4266 0 14.5 6.5)"><stop stop-color="#392108"/><stop offset="1" stop-color="#C87928" stop-opacity="0"/></radialGradient><radialGradient id="c" cx="0" cy="0" r="1" gradientUnits="userSpaceOnUse" gradientTransform="matrix(0 33 -38.8902 0 16.5 -23)"><stop offset=".843" stop-color="#425BFF"/><stop offset=".898" stop-color="#508FFF"/><stop offset=".958" stop-color="#4457FF"/></radialGradient><radialGradient id="d" cx="0" cy="0" r="1" gradientUnits="userSpaceOnUse" gradientTransform="matrix(14 0 0 16.4989 6.5 3.5)"><stop stop-color="#5664D2"/><stop offset="1" stop-color="#4457FF" stop-opacity="0"/></radialGradient><linearGradient id="a" x1="16" y1="-1.043" x2="16" y2="3.724" gradientUnits="userSpaceOnUse"><stop stop-color="#3173EC"/><stop offset="1" stop-color="#3A54E1"/></linearGradient></defs></svg>
